actions/128/mail-reply-sender.svg

<?xml version="1.0" encoding="UTF-8" standalone="no"?>
<svg
   xmlns:dc="http://purl.org/dc/elements/1.1/"
   xmlns:cc="http://creativecommons.org/ns#"
   xmlns:rdf="http://www.w3.org/1999/02/22-rdf-syntax-ns#"
   xmlns:svg="http://www.w3.org/2000/svg"
   xmlns="http://www.w3.org/2000/svg"
   xmlns:xlink="http://www.w3.org/1999/xlink"
   id="svg4014"
   height="128"
   width="128"
   version="1.1">
  <defs
     id="defs4016">
    <linearGradient
       gradientTransform="matrix(0,-3.0804774,-3.3181932,0,127.21217,144.48761)"
       gradientUnits="userSpaceOnUse"
       xlink:href="#linearGradient4087-8-0"
       id="linearGradient3269"
       y2="15.991243"
       x2="20.576487"
       y1="15.991243"
       x1="38.940514" />
    <linearGradient
       id="linearGradient4087-8-0">
      <stop
         offset="0"
         style="stop-color:#ffffff;stop-opacity:1"
         id="stop4089-85-9" />
      <stop
         offset="0.51153916"
         style="stop-color:#ffffff;stop-opacity:0.23529412"
         id="stop4091-0-2" />
      <stop
         offset="0.58522105"
         style="stop-color:#ffffff;stop-opacity:0.15686275"
         id="stop4093-9-5" />
      <stop
         offset="1"
         style="stop-color:#ffffff;stop-opacity:0.39215687"
         id="stop4095-6-4" />
    </linearGradient>
    <linearGradient
       gradientTransform="matrix(-2.8314011,0,0,2.6285596,132.26,2.279603)"
       gradientUnits="userSpaceOnUse"
       xlink:href="#linearGradient4330"
       id="linearGradient3234-8"
       y2="52.658817"
       x2="23.731871"
       y1="4.4175272"
       x1="23.731871" />
    <radialGradient
       gradientTransform="matrix(1,0,0,0.536723,0,16.87306)"
       gradientUnits="userSpaceOnUse"
       xlink:href="#linearGradient8662-7"
       id="radialGradient4195"
       fy="36.421127"
       fx="24.837126"
       r="15.644737"
       cy="36.421127"
       cx="24.837126" />
    <linearGradient
       id="linearGradient8662-7">
      <stop
         offset="0"
         style="stop-color:#000000;stop-opacity:1"
         id="stop8664-0" />
      <stop
         offset="1"
         style="stop-color:#000000;stop-opacity:0"
         id="stop8666-1" />
    </linearGradient>
    <linearGradient
       id="linearGradient4330">
      <stop
         offset="0"
         style="stop-color:#f0c1ff;stop-opacity:1"
         id="stop4332" />
      <stop
         offset="0.26238"
         style="stop-color:#c5a3f2;stop-opacity:1"
         id="stop4334" />
      <stop
         offset="0.704952"
         style="stop-color:#7a36b1;stop-opacity:1"
         id="stop4336" />
      <stop
         offset="1"
         style="stop-color:#4c2d81;stop-opacity:1"
         id="stop4338" />
    </linearGradient>
  </defs>
  <metadata
     id="metadata4019">
    <rdf:RDF>
      <cc:Work
         rdf:about="">
        <dc:format>image/svg+xml</dc:format>
        <dc:type
           rdf:resource="http://purl.org/dc/dcmitype/StillImage" />
        <dc:title />
      </cc:Work>
    </rdf:RDF>
  </metadata>
  <g
     transform="matrix(5.3333333,0,0,5.3333333,0,-42.66667)"
     id="layer1-6">
    <g
       transform="translate(0.43749952,0)"
       id="g4190">
      <path
         d="m 40.481863,36.421127 a 15.644737,8.3968973 0 1 1 -31.2894745,0 15.644737,8.3968973 0 1 1 31.2894745,0 z"
         transform="matrix(0.52995454,0,0,-0.65783905,0.487385,48.935435)"
         id="path3501-0"
         style="display:inline;overflow:visible;visibility:visible;opacity:0.14117647;fill:url(#radialGradient4195);fill-opacity:1;fill-rule:evenodd;stroke:none;stroke-width:1;marker:none" />
    </g>
  </g>
  <path
     d="M 87.903212,103.51805 C 123.85466,79.311512 103.57265,34.763309 63.499993,35.128003 l 0,-20.646051 -48.018031,35.573889 48.018031,35.396912 0,-20.646052 c 25.845255,-0.999749 41.586727,21.820858 23.109982,38.711349 z"
     id="path3503-0-5"
     style="display:block;overflow:visible;visibility:visible;fill:url(#linearGradient3234-8);fill-opacity:1;fill-rule:nonzero;stroke:none;stroke-width:0.96392488;stroke-linecap:butt;stroke-linejoin:round;stroke-miterlimit:7;stroke-dasharray:none;stroke-dashoffset:0;stroke-opacity:1;marker:none" />
  <path
     d="M 91.791574,99.698872 C 119.192,74.840899 102.94241,35.985332 62.499997,35.985332 l 0,-19.462637 -45.234338,33.533146 45.234338,33.450678 0,-19.794246 c 31.84665,-0.727875 38.277093,23.305505 29.291577,35.986599 z"
     id="path3505-4-9"
     style="display:block;overflow:visible;visibility:visible;opacity:0.52999998;fill:none;stroke:url(#linearGradient3269);stroke-width:0.96392488;stroke-linecap:butt;stroke-linejoin:miter;stroke-miterlimit:7;stroke-dasharray:none;stroke-dashoffset:0;stroke-opacity:1;marker:none" />
  <path
     d="M 87.903212,103.51805 C 123.85466,79.311515 103.57265,34.763312 63.499993,35.128006 l 0,-20.646051 -48.018031,35.573889 48.018031,35.396912 0,-20.646052 c 25.845255,-0.999749 41.586727,21.820858 23.109982,38.711346 z"
     id="path3503-0-5-6"
     style="display:inline;overflow:visible;visibility:visible;fill:none;fill-opacity:1;fill-rule:nonzero;stroke:#6326b9;stroke-width:1;stroke-linecap:butt;stroke-linejoin:round;stroke-miterlimit:4;stroke-dasharray:none;stroke-dashoffset:0;stroke-opacity:1;marker:none;color:#000000;clip-rule:nonzero;opacity:0.5;isolation:auto;mix-blend-mode:normal;color-interpolation:sRGB;color-interpolation-filters:linearRGB;solid-color:#000000;solid-opacity:1;filter-blend-mode:normal;filter-gaussianBlur-deviation:0;color-rendering:auto;image-rendering:auto;shape-rendering:auto;text-rendering:auto;enable-background:accumulate" />
</svg>

<svg xmlns="http://www.w3.org/2000/svg" xmlns:xlink="http://www.w3.org/1999/xlink" viewBox="0 0 128 128"><defs><linearGradient gradientTransform="matrix(0 -3.08048 -3.3182 0 127.212 144.488)" gradientUnits="userSpaceOnUse" xlink:href="#a" id="f" y2="15.991" x2="20.576" y1="15.991" x1="38.941"/><linearGradient id="a"><stop offset="0" stop-color="#fff"/><stop offset=".512" stop-color="#fff" stop-opacity=".235"/><stop offset=".585" stop-color="#fff" stop-opacity=".157"/><stop offset="1" stop-color="#fff" stop-opacity=".392"/></linearGradient><linearGradient gradientTransform="matrix(-2.8314 0 0 2.62856 132.26 2.28)" gradientUnits="userSpaceOnUse" xlink:href="#b" id="e" y2="52.659" x2="23.732" y1="4.418" x1="23.732"/><radialGradient gradientTransform="matrix(1 0 0 .53672 0 16.873)" gradientUnits="userSpaceOnUse" xlink:href="#c" id="d" fy="36.421" fx="24.837" r="15.645" cy="36.421" cx="24.837"/><linearGradient id="c"><stop offset="0"/><stop offset="1" stop-opacity="0"/></linearGradient><linearGradient id="b"><stop offset="0" stop-color="#f0c1ff"/><stop offset=".262" stop-color="#c5a3f2"/><stop offset=".705" stop-color="#7a36b1"/><stop offset="1" stop-color="#4c2d81"/></linearGradient></defs><path d="M40.482 36.42a15.645 8.397 0 1 1-31.29 0 15.645 8.397 0 1 1 31.29 0z" transform="matrix(2.82642 0 0 -3.50847 4.933 218.322)" overflow="visible" opacity=".141" fill="url(#d)" fill-rule="evenodd"/><path d="M87.903 103.518c35.952-24.206 15.67-68.755-24.403-68.39V14.482L15.482 50.056 63.5 85.453V64.807c25.845-1 41.587 21.82 23.11 38.71z" display="block" overflow="visible" fill="url(#e)"/><path d="M91.792 99.7c27.4-24.86 11.15-63.715-29.292-63.715V16.523L17.266 50.056 62.5 83.506V63.713c31.847-.728 38.277 23.306 29.292 35.987z" display="block" overflow="visible" opacity=".53" fill="none" stroke="url(#f)" stroke-width=".964" stroke-miterlimit="7"/><path d="M87.903 103.518c35.952-24.206 15.67-68.755-24.403-68.39V14.482L15.482 50.056 63.5 85.453V64.807c25.845-1 41.587 21.82 23.11 38.71z" style="isolation:auto;mix-blend-mode:normal;filter-blend-mode:normal;filter-gaussianBlur-deviation:0" overflow="visible" fill="none" stroke="#6326b9" stroke-linejoin="round" color="#000" opacity=".5"/></svg>
